X: 1
T:I Ha'e a Wife o' My Ain  "arr. Kent Hiestand"
M:9/8
L:1/8
Q:80
C:Robert Burns
S:Jig
K:HP
|: {g}BAB{Gdc}d2e{g}fef|
{g}BAB{Gdc}d2e{g}fed|
{g}BAB{Gdc}d2e{g}def|  !
{g}A{d}A{e}Aa2f{g}ec{G}A:|
{a}gfgaga{fg}f3|
{g}BAB{Gdc}d2e{g}fef|  !
{a}gfeagf{gef}e3|
{g}ABAa2f{g}ec{G}A|
{a}gfgaga{fg}f3|  !
{g}BAB{Gdc}d2e{g}fed|
{gf}g2eagf{g}efg|
{g}A{d}A{e}Aa2f{g}ec{G}A|]  !
